packages/kaspersky-hexa-ui-icons/src/iconsSVGs/24/StackedChartBar.svg

<svg width="24" height="24" viewBox="0 0 24 24" fill="none" xmlns="http://www.w3.org/2000/svg">
<path d="M5 3C5 2.44772 4.55228 2 4 2C3.44772 2 3 2.44772 3 3V21C3 21.5523 3.44772 22 4 22C4.55228 22 5 21.5523 5 21V3Z" fill="black"/>
<path fill-rule="evenodd" clip-rule="evenodd" d="M9 2C7.89543 2 7 2.89543 7 4V6C7 7.10457 7.89543 8 9 8H19C20.1046 8 21 7.10457 21 6V4C21 2.89543 20.1046 2 19 2H9ZM11 4H9V6H11V4ZM13 6V4H19V6H13Z" fill="black"/>
<path fill-rule="evenodd" clip-rule="evenodd" d="M7 11C7 9.89543 7.89543 9 9 9H14C15.1046 9 16 9.89543 16 11V13C16 14.1046 15.1046 15 14 15H9C7.89543 15 7 14.1046 7 13V11ZM14 11H9V13H14V11Z" fill="black"/>
<path fill-rule="evenodd" clip-rule="evenodd" d="M9 16C7.89543 16 7 16.8954 7 18V20C7 21.1046 7.89543 22 9 22H18C19.1046 22 20 21.1046 20 20V18C20 16.8954 19.1046 16 18 16H9ZM18 20H16V18H18V20ZM14 20V18H9V20H14Z" fill="black"/>
</svg>

<svg xmlns="http://www.w3.org/2000/svg" width="24" height="24" fill="none" viewBox="0 0 24 24"><path fill="#000" fill-rule="evenodd" d="M5 3c0-.5523-.4477-1-1-1s-1 .4477-1 1v18c0 .5523.4477 1 1 1s1-.4477 1-1zm4-1c-1.1046 0-2 .8954-2 2v2c0 1.1046.8954 2 2 2h10c1.1046 0 2-.8954 2-2V4c0-1.1046-.8954-2-2-2zm2 2H9v2h2zm2 2V4h6v2zm-6 5c0-1.1046.8954-2 2-2h5c1.1046 0 2 .8954 2 2v2c0 1.1046-.8954 2-2 2H9c-1.1046 0-2-.8954-2-2zm7 0H9v2h5zm-5 5c-1.1046 0-2 .8954-2 2v2c0 1.1046.8954 2 2 2h9c1.1046 0 2-.8954 2-2v-2c0-1.1046-.8954-2-2-2zm5 4v-2H9v2zm4 0h-2v-2h2z"/></svg>
